!!!OTL: JUENGST IN DEM VERFLOSSNEN JAHR
!!!ARE: Europa, Mitteleuropa, Deutschland; France, Elsass
!!!SCT: B0423
!!!YEM: Copyright 1995, estate of Helmut Schaffrath.
**kern
*ICvox
*Ivox
*M4/4
*k[f#c#]
*D:
=1
{4.d
8d
8.f#
16f#
8e
8d
=2
2a
4r}
{4f#
=3
4.a
8f#
8e
8g
8c#
8e
=4
2d
2r}
=5
{4.e
8e
8.e
16e
8a
8e
=6
4f#
4e
4r}
{8a
8a
=7
4.g#
8g#
4g#
8f#
8g#
=8
4b
4a
4r}
{8a
8a
=9
4.b
8b
4cc#
4a
=10
2dd}
{4dd
4b
=11
4.a
8f#
4g
4e
=12
2d
2r}
==
!!!AGN: Scherz -, Liebes - Lied, national
!!!ONB: ESAC (Essen Associative Code) Database: BOEHME
!!!AMT: simple quadruple
!!!AIN: vox
!!!EED: Helmut Schaffrath
!!!EEV: 1.0
*-
